resources/src/mediawiki.widgets/images/page-not-found-rtl.svg

<?xml version="1.0" encoding="UTF-8"?>
<svg xmlns="http://www.w3.org/2000/svg" width="24" height="24" viewBox="0 0 24 24">
	<path d="M19 3v14c0 2.125-1.911 4-4 4H5V3zm-7.644 13.572h1.687v-1.601h-1.687zm-1.982-6.001a2.106 2.106 0 0 0 .609.987l.403.364.438.396c.134.127.251.273.353.428.103.159.179.346.233.555.054.214.081.473.081.783h1.36c0-.378-.018-.696-.058-.955a2.7 2.7 0 0 0-.183-.687 2.242 2.242 0 0 0-.309-.519 3.59 3.59 0 0 0-.434-.441l-.385-.332a2.15 2.15 0 0 1-.327-.341 1.513 1.513 0 0 1-.228-.419 1.671 1.671 0 0 1-.081-.551 1.5 1.5 0 0 1 .134-.66c.089-.182.197-.332.322-.441a1.35 1.35 0 0 1 .403-.246 1.17 1.17 0 0 1 .376-.077c.519 0 .904.173 1.15.519.246.346.371.81.371 1.392h1.436a3.77 3.77 0 0 0-.206-1.283 2.641 2.641 0 0 0-1.561-1.619 3.33 3.33 0 0 0-1.253-.223c-.385 0-.743.059-1.078.173a2.548 2.548 0 0 0-.868.5 2.304 2.304 0 0 0-.586.814 2.7 2.7 0 0 0-.215 1.101c.009.305.04.564.103.783z"/>
</svg>

<?xml version="1.0" encoding="UTF-8"?>
<svg xmlns="http://www.w3.org/2000/svg" width="24" height="24" viewBox="0 0 24 24">
	<path d="m 19,3 0,14 c 0,2.125 -1.911,4 -4,4 L 5,21 5,3 z m -7.644,13.572 1.687,0 0,-1.601 -1.687,0 z M 9.374,10.571 c 0.063,0.218 0.148,0.405 0.251,0.564 0.103,0.159 0.224,0.3 0.358,0.423 l 0.403,0.364 0.438,0.396 c 0.134,0.127 0.251,0.273 0.353,0.428 0.103,0.159 0.179,0.346 0.233,0.555 0.054,0.214 0.081,0.473 0.081,0.783 l 1.36,0 c 0,-0.378 -0.018,-0.696 -0.058,-0.955 C 12.757,12.87 12.695,12.642 12.61,12.442 12.525,12.246 12.422,12.073 12.301,11.923 12.18,11.773 12.033,11.627 11.867,11.482 L 11.482,11.15 c -0.121,-0.105 -0.233,-0.214 -0.327,-0.341 -0.098,-0.123 -0.17,-0.264 -0.228,-0.419 -0.054,-0.155 -0.081,-0.337 -0.081,-0.551 0,-0.255 0.045,-0.478 0.134,-0.66 0.089,-0.182 0.197,-0.332 0.322,-0.441 0.125,-0.109 0.26,-0.191 0.403,-0.246 0.143,-0.05 0.268,-0.077 0.376,-0.077 0.519,0 0.904,0.173 1.15,0.519 0.246,0.346 0.371,0.81 0.371,1.392 l 1.436,0 C 15.038,9.857 14.971,9.43 14.832,9.043 14.693,8.661 14.492,8.329 14.228,8.056 13.964,7.783 13.646,7.569 13.271,7.424 12.9,7.274 12.479,7.201 12.018,7.201 11.633,7.201 11.275,7.26 10.94,7.374 10.609,7.488 10.318,7.656 10.072,7.874 9.826,8.092 9.629,8.361 9.486,8.688 9.343,9.011 9.271,9.38 9.271,9.789 c 0.009,0.305 0.04,0.564 0.103,0.783 z"/>
</svg>
